images_elementary_svg/cmd/hu/lc_italic.svg

<svg height="24" width="24" xmlns="http://www.w3.org/2000/svg" xmlns:xlink="http://www.w3.org/1999/xlink"><radialGradient id="a" cx="13" cy="7.158687" gradientTransform="matrix(-2.8900222 .00000025 -.00000038 -4.4461878 46.959253 34.82886)" gradientUnits="userSpaceOnUse" r="4.498236"><stop offset="0" stop-color="#737373"/><stop offset=".26238" stop-color="#636363"/><stop offset=".704952" stop-color="#4b4b4b"/><stop offset="1" stop-color="#3f3f3f"/></radialGradient><linearGradient id="b" gradientUnits="userSpaceOnUse" x1="15.40625" x2="15.40625" y1="44" y2="41"><stop offset="0" stop-opacity="0"/><stop offset=".5"/><stop offset="1" stop-opacity="0"/></linearGradient><radialGradient id="c" cx="40" cy="43.5" gradientTransform="matrix(1 0 0 .75 -25.446972 9.875)" gradientUnits="userSpaceOnUse" r="2" xlink:href="#d"/><linearGradient id="d"><stop offset="0"/><stop offset="1" stop-opacity="0"/></linearGradient><radialGradient id="e" cx="9" cy="43.5" gradientTransform="matrix(1 0 0 .75 -5.1875 9.875)" gradientUnits="userSpaceOnUse" r="2" xlink:href="#d"/><g transform="matrix(.60518445 0 0 1 2.692734 -21.5)"><path d="m14.553028 41v3h.5c.831 0 1.5-.669 1.5-1.5s-.669-1.5-1.5-1.5z" fill="url(#c)" opacity=".2"/><path d="m3.21875 41c-.7790625 0-1.40625.627187-1.40625 1.40625v.1875c0 .779063.6271875 1.40625 1.40625 1.40625h.59375v-3z" fill="url(#e)" opacity=".2"/><path d="m3.8125 41h10.740527v3h-10.740527z" fill="url(#b)" opacity=".2"/></g><path d="m18.589341 12.346775q-.404951 2.024753-1.236742 3.556999-.83179 1.521301-2.035698 2.550095-1.192962 1.017849-2.747097 1.532245-1.554135.514397-3.39283.514397h-4.0057281l3.1958268-16.001023h4.4544573q1.674526 0 2.933156.5034521 1.25863.5034522 2.013809 1.4994119.755178.9850151.97407 2.4515932.229837 1.4665778-.153224 3.3928298zm-2.167034.06567q.317394-1.597916.186059-2.7580446-.120391-1.1710736-.667622-1.9262518-.536286-.7551783-1.466578-1.1163505-.930292-.3721168-2.210811-.3721168h-2.199867l-2.5063166 12.5096917h1.7730271q2.8893775 0 4.6733495-1.597913 1.783972-1.597914 2.418759-4.739017z" fill="url(#a)" stroke="#000" stroke-opacity=".6"/><path d="m8.3671875 4.5-3.1953125 16h.2988281l2.8964844-14.5h4.4550785c1.11635 0 2.092553.1682715 2.93164.5039062.839087.3356348 1.51022.8340738 2.013672 1.4980469.503452.6566768.828681 1.4734532.97461 2.4511719.022436.143167.031246.297528.044921.447266.056553-.702486.047643-1.3566177-.044921-1.947266-.145929-.9777187-.471158-1.7944951-.97461-2.4511719-.503452-.6639731-1.174585-1.1624121-2.013672-1.4980469-.839087-.3356347-1.81529-.5039062-2.93164-.5039062zm8.2343745 6.613281c-.035369.409291-.08735.833959-.179687 1.298828-.423192 2.09407-1.228654 3.674959-2.417969 4.740235-1.189314 1.065275-2.747576 1.597656-4.6738279 1.597656h-1.4726562l-.3007813 1.5h1.7734375c1.9262519 0 3.4845139-.532381 4.6738279-1.597656 1.189315-1.065276 1.994777-2.646165 2.417969-4.740235.211596-1.065275.273104-1.984393.185547-2.757812-.001471-.014308-.004293-.026801-.00586-.041016z" fill="#fff" opacity=".2"/></svg>

<?xml version="1.0" encoding="UTF-8" standalone="no"?>
<svg
   xmlns:dc="http://purl.org/dc/elements/1.1/"
   xmlns:cc="http://creativecommons.org/ns#"
   xmlns:rdf="http://www.w3.org/1999/02/22-rdf-syntax-ns#"
   xmlns:svg="http://www.w3.org/2000/svg"
   xmlns="http://www.w3.org/2000/svg"
   xmlns:xlink="http://www.w3.org/1999/xlink"
   xmlns:sodipodi="http://sodipodi.sourceforge.net/DTD/sodipodi-0.dtd"
   xmlns:inkscape="http://www.inkscape.org/namespaces/inkscape"
   height="24"
   width="24"
   version="1.1"
   id="svg39"
   sodipodi:docname="lc_italic.svg"
   inkscape:version="0.92.4 (unknown)"
   inkscape:export-filename="/home/rizmut/Dokumen/Rizmut/Github/libreoffice-style-elementary/images_elementary/cmd/hu/lc_italic.png"
   inkscape:export-xdpi="96"
   inkscape:export-ydpi="96">
  <metadata
     id="metadata45">
    <rdf:RDF>
      <cc:Work
         rdf:about="">
        <dc:format>image/svg+xml</dc:format>
        <dc:type
           rdf:resource="http://purl.org/dc/dcmitype/StillImage" />
        <dc:title />
      </cc:Work>
    </rdf:RDF>
  </metadata>
  <defs
     id="defs43">
    <radialGradient
       inkscape:collect="always"
       xlink:href="#e"
       id="radialGradient901"
       cx="13"
       cy="7.1586866"
       fx="13"
       fy="7.1586866"
       r="4.4982357"
       gradientTransform="matrix(-2.8900222,2.4709558e-7,-3.8014694e-7,-4.4461878,46.959253,34.82886)"
       gradientUnits="userSpaceOnUse" />
    <linearGradient
       inkscape:collect="always"
       xlink:href="#d"
       id="linearGradient926"
       gradientUnits="userSpaceOnUse"
       x1="16"
       y1="44"
       x2="16"
       y2="41"
       gradientTransform="translate(-0.59375003)" />
  </defs>
  <sodipodi:namedview
     pagecolor="#ffffff"
     bordercolor="#666666"
     borderopacity="1"
     objecttolerance="10"
     gridtolerance="10"
     guidetolerance="10"
     inkscape:pageopacity="0"
     inkscape:pageshadow="2"
     inkscape:window-width="1366"
     inkscape:window-height="714"
     id="namedview41"
     showgrid="true"
     inkscape:zoom="19.666667"
     inkscape:cx="2.2110624"
     inkscape:cy="9.8111849"
     inkscape:window-x="0"
     inkscape:window-y="28"
     inkscape:window-maximized="1"
     inkscape:current-layer="svg39"
     showguides="false">
    <inkscape:grid
       type="xygrid"
       id="grid852" />
    <sodipodi:guide
       position="-4.5,13"
       orientation="-0.70710678,0.70710678"
       id="guide1012"
       inkscape:locked="false" />
  </sodipodi:namedview>
  <radialGradient
     id="a"
     cx="40"
     cy="43.5"
     gradientTransform="matrix(1,0,0,0.75,-25.446972,9.875)"
     gradientUnits="userSpaceOnUse"
     r="2"
     xlink:href="#b" />
  <linearGradient
     id="b">
    <stop
       offset="0"
       id="stop3" />
    <stop
       offset="1"
       stop-opacity="0"
       id="stop5" />
  </linearGradient>
  <radialGradient
     id="c"
     cx="9"
     cy="43.5"
     gradientTransform="matrix(1,0,0,0.75,-5.1875,9.875)"
     gradientUnits="userSpaceOnUse"
     r="2"
     xlink:href="#b" />
  <linearGradient
     id="d"
     gradientUnits="userSpaceOnUse"
     x1="16"
     x2="16"
     y1="44"
     y2="41">
    <stop
       offset="0"
       stop-opacity="0"
       id="stop9" />
    <stop
       offset=".5"
       id="stop11" />
    <stop
       offset="1"
       stop-opacity="0"
       id="stop13" />
  </linearGradient>
  <radialGradient
     id="e"
     cx="12.279661"
     cy="7.140932"
     gradientTransform="matrix(-3.1675784 .07135103 -.0749702 -3.3513607 51.71176 26.522026)"
     gradientUnits="userSpaceOnUse"
     r="5.015671">
    <stop
       offset="0"
       stop-color="#737373"
       id="stop16" />
    <stop
       offset=".26238"
       stop-color="#636363"
       id="stop18" />
    <stop
       offset=".704952"
       stop-color="#4b4b4b"
       id="stop20" />
    <stop
       offset="1"
       stop-color="#3f3f3f"
       id="stop22" />
  </radialGradient>
  <g
     transform="matrix(0.60518445,0,0,1,2.6927343,-21.5)"
     id="g31">
    <path
       d="m 14.553028,41 v 3 h 0.5 c 0.831,0 1.5,-0.669 1.5,-1.5 0,-0.831 -0.669,-1.5 -1.5,-1.5 z"
       id="path25"
       style="opacity:0.2;fill:url(#a)"
       inkscape:connector-curvature="0" />
    <path
       d="M 3.21875,41 C 2.4396875,41 1.8125,41.627187 1.8125,42.40625 v 0.1875 C 1.8125,43.372813 2.4396875,44 3.21875,44 H 3.8125 v -3 z"
       id="path27"
       style="opacity:0.2;fill:url(#c)"
       inkscape:connector-curvature="0" />
    <path
       d="m 3.8125,41 h 10.740527 v 3 H 3.8125 Z"
       id="path29"
       style="opacity:0.2;fill:url(#linearGradient926)"
       inkscape:connector-curvature="0"
       sodipodi:nodetypes="ccccc" />
  </g>
  <g
     aria-label="D"
     style="font-style:normal;font-weight:normal;font-size:40px;line-height:1.25;font-family:sans-serif;letter-spacing:0px;word-spacing:0px;fill:url(#radialGradient901);fill-opacity:1;stroke:#000000;stroke-opacity:0.6"
     id="text856">
    <path
       d="m 18.589341,12.346775 q -0.404951,2.024753 -1.236742,3.556999 -0.83179,1.521301 -2.035698,2.550095 -1.192962,1.017849 -2.747097,1.532245 -1.554135,0.514397 -3.39283,0.514397 H 5.1712459 L 8.3670727,4.499488 H 12.82153 q 1.674526,0 2.933156,0.5034521 1.25863,0.5034522 2.013809,1.4994119 0.755178,0.9850151 0.97407,2.4515932 0.229837,1.4665778 -0.153224,3.3928298 z m -2.167034,0.06567 Q 16.739701,10.814529 16.608366,9.6544004 16.487975,8.4833268 15.940744,7.7281486 15.404458,6.9729703 14.474166,6.6117981 13.543874,6.2396813 12.263355,6.2396813 H 10.063488 L 7.5571714,18.749373 h 1.7730271 q 2.8893775,0 4.6733495,-1.597913 1.783972,-1.597914 2.418759,-4.739017 z"
       style="font-style:italic;font-variant:normal;font-weight:normal;font-stretch:normal;font-size:22.41456604px;font-family:'Droid Sans';-inkscape-font-specification:'Droid Sans';fill:url(#radialGradient901);fill-opacity:1;stroke:#000000;stroke-opacity:0.6"
       id="path836" />
  </g>
  <path
     style="font-style:normal;font-weight:normal;font-size:40px;line-height:1.25;font-family:sans-serif;letter-spacing:0px;word-spacing:0px;fill:#ffffff;fill-opacity:1;stroke:none;stroke-opacity:0.88759691;opacity:0.2"
     d="M 8.3671875 4.5 L 5.171875 20.5 L 5.4707031 20.5 L 8.3671875 6 L 12.822266 6 C 13.938616 6 14.914819 6.1682715 15.753906 6.5039062 C 16.592993 6.839541 17.264126 7.33798 17.767578 8.0019531 C 18.27103 8.6586299 18.596259 9.4754063 18.742188 10.453125 C 18.764624 10.596292 18.773434 10.750653 18.787109 10.900391 C 18.843662 10.197905 18.834752 9.5437733 18.742188 8.953125 C 18.596259 7.9754063 18.27103 7.1586299 17.767578 6.5019531 C 17.264126 5.83798 16.592993 5.339541 15.753906 5.0039062 C 14.914819 4.6682715 13.938616 4.5 12.822266 4.5 L 8.3671875 4.5 z M 16.601562 11.113281 C 16.566193 11.522572 16.514212 11.94724 16.421875 12.412109 C 15.998683 14.506179 15.193221 16.087068 14.003906 17.152344 C 12.814592 18.217619 11.25633 18.75 9.3300781 18.75 L 7.8574219 18.75 L 7.5566406 20.25 L 9.3300781 20.25 C 11.25633 20.25 12.814592 19.717619 14.003906 18.652344 C 15.193221 17.587068 15.998683 16.006179 16.421875 13.912109 C 16.633471 12.846834 16.694979 11.927716 16.607422 11.154297 C 16.605951 11.139989 16.603129 11.127496 16.601562 11.113281 z "
     id="text1016" />
</svg>
